X:0600
T:"The Emerald Isle"        (air)        0600
C:Unattributed
C:slow
Q:1/4=70
I:abc2nwc
B:O'Neill's Music Of Ireland (The 1850) Lyon & Healy, Chicago, 1903 edition
Z:FROM O'NEILL'S TO NOTEWORTHY, FROM NOTEWORTHY TO ABC, MIDI AND .TXT BY VINCE
BRENNAN June 2003 (HTTP://WWW.SOSYOURMOM.COM)
M:3/4
L:1/8
K:G
\`i_VB\^iHd2|d2G2A2|B4d3/2d/2|d2g2e2|e2d2zd|
d2c2B2|c2B2(de)|G2 {B}A3G|(G2F2)d2|
d2 {d}cB AG|g4gg|fg ag ec|e2d2zd|
dg B3d|de G3G|B2B3A|G4||
B2|"^>"ef e3B|"^>"ga g3B|"^>"c2"^>"B2"^>"A2|G {B}A G3G|
A2A2A2|B4B3/2B/2|c2B2A2|(G2{AG}F2)Bc|
d3/2e/2 d3(B/2G/2)|g4zg|(ag) (fe) (dc)|e2d3d/2d/2|
d2(cB) (AG)|c2B2A2|G2A2B2|Hc4d3/2e/2|
dg B3d|de G3E|D2B2A2|G4|]
